#Title		ADR-0031 step 17 beta K part i-only fixture (= K part rhythm command backslash-i RIM trigger proof = full 6 drum completion)
#Composer	M.Koshikawa.
#Memo		ADR-0031 §決定 2 b+s+c+h+t+i proof = full 6 drum completion、 PMDDotNET rs00 経由 0xEB 0x20 emit を狙う、 ir = \i + r(rest) fixture pattern (= sample 名 rim と PMD semantics 名 RIM 完全一致、 「ir」 は「RIM」 略ではない、 PMDDotNET 内部名 rimset の RIM semantics、 ADR-0030 「tom」 = TOM 完全一致 pattern 踏襲、 alias 新設不要、 `\r` = rest 専用 / `\r = RIM` は誤り)
#PNEFile	"step5.PNE"

; FM voice (= reference template、 step5/step11/step12/step13/step14/step15/step16 fixture と同一)
; nm alg fbl
@001 000 005
; ar  dr  sr  rr  sl  tl  ks  ml  dt ams
 031 000 000 000 000 017 000 001 003 000
 031 000 000 000 000 025 000 002 003 000
 031 000 000 000 000 038 000 001 003 000
 004 018 000 015 002 000 000 001 003 000

A ;silent
B ;silent
C ;silent
D ;silent
E ;silent
F ;silent

G V0
H V0
I V0

J ;empty

; K part — Step 17 beta proof、 PMDDotNET rimset() rhythm trigger (= bit 5 = 0x20、 PMDNEO 側 wording は RIM 統一)、 ir = \i + r(rest) fixture pattern (= NOT "RIM" abbreviation、 sample 名 rim と PMD semantics 名 RIM 完全一致)
; expect: 0xEB 0x20 0x80 (= rhykey RIM bitmap + part end)
; ADR-0031 §決定 3 / 軸 1: RIM sample source = existing adpcma_sample_rim symbol reuse (= 「rim」 = sample provenance 名 + PMD semantics 名 完全一致、 alias 新設不要、 PMDDotNET 内部名 rimset は ground truth として記録 + PMDNEO 側 wording も RIM 統一 = ADR-0030 tamset legacy naming のような wording 分離なし)
; full 6 drum completion = b+s+c+h+t+i 6 drum 段、 Step 12-17 drum 種拡張軸 sprint chain の最終
K	\i

; L-Q silent (= 記載なし)
