#Title		ADR-0031 step 17 gamma R command i-only fixture (= L part \i only proof、 K-RIM と同 dispatch path 証明 = full 6 drum completion γ)
#Composer	M.Koshikawa.
#Memo		melody part (= L) 内 \i inline → 0xEB 0x20 → commandsp_rhykey → pmdneo_rhythm_event_trigger 共通 hook → RIM trigger、 ir = \i + r(rest) fixture pattern (= sample 名 rim と PMD semantics 名 RIM 完全一致、 「RIM」 略ではない、 PMDDotNET 内部名 rimset の RIM semantics、 `\r` = rest 専用 / `\r = RIM` は誤り)
#PNEFile	"step5.PNE"

; FM voice (= reference template、 step5/step11/step12/step13/step14/step15/step16 fixture と同一)
; nm alg fbl
@001 000 005
; ar  dr  sr  rr  sl  tl  ks  ml  dt ams
 031 000 000 000 000 017 000 001 003 000
 031 000 000 000 000 025 000 002 003 000
 031 000 000 000 000 038 000 001 003 000
 004 018 000 015 002 000 000 001 003 000

A ;silent
B ;silent
C ;silent
D ;silent
E ;silent
F ;silent

G V0
H V0
I V0

J ;empty

K ;empty (= K part は使わない、 R 経路のみ proof)

; L part — Step 17 γ proof 対象、 melody part 内 \i inline (= R command RIM semantics、 PMDDotNET 内部名 rimset の RIM semantics、 PMDNEO 側 wording も RIM 統一)、 ir = \i + r(rest) fixture pattern (= NOT "RIM" abbreviation、 sample 名 rim と PMD semantics 名 RIM 完全一致)
; PMDDotNET emit 期待: L part body bytecode = 0xEB 0x20 (+ 0x80 part end)
; driver pmdneo_part_main → commandsp(0xEB) → commandsp_rhykey → pmdneo_rhythm_event_trigger → bit 5 → _rhythm_event_rim_trigger → ADPCM-A L ch RIM trigger (= adpcma_sample_rim reuse)
; ADR-0031 §決定 3 / 軸 1: RIM sample source = existing adpcma_sample_rim symbol reuse (= 「rim」 = sample provenance 名 + PMD semantics 名 完全一致、 alias 新設不要、 ADR-0030 「tom」 = TOM 完全一致 pattern 踏襲、 PMDDotNET 内部名 rimset と PMDNEO 側 wording RIM は実質一致 = ADR-0030 tamset legacy naming と違って wording 分離なし)
; K-RIM fixture (= k-ir-only.mml) と同 routine addr hit + 同 RIM register write の literal differential proof
; full 6 drum completion = b+s+c+h+t+i 6 drum 段、 Step 12-17 drum 種拡張軸 sprint chain の最終
L	\i

; M-Q (= ADPCM-A ch 1-5 native melody) silent (= 記載なし)
