#Title		ADR-0016 step 4-2 J part minimum (= ADPCM-B register write gate verify)
#Composer	M.Koshikawa.
#Memo		ADPCM-B 単発 register write 確認用 minimal fixture

; FM voice (= reference template、 voice-ar-04.mml と同じ)
; nm alg fbl
@001 000 005
; ar  dr  sr  rr  sl  tl  ks  ml  dt ams
 031 000 000 000 000 017 000 001 003 000
 031 000 000 000 000 025 000 002 003 000
 031 000 000 000 000 038 000 001 003 000
 004 018 000 015 002 000 000 001 003 000

; J part = ADPCM-B (= chip ADPCM-B 1 ch)
; 全音符 1 つだけ、 register write が観測できれば OK
J	o4 l1 c
