; Phase 9c chord pattern for standalone_test.s comparison.
B t140 q6 V0 l4 c c c c c c c c
C t140 q6 l4 e e e e e e e e
E t140 q6 l4 g g g g g g g g
F t140 q6 o5 l4 c c c c c c c c
G
H
I
J
L
M
N
O
P
Q
