#Title		ADR-0026 step 12 gamma R command fixture (= L part \b only proof、 K と同 dispatch path 証明)
#Composer	M.Koshikawa.
#Memo		melody part (= L) 内 \b inline → 0xEB 0x01 → commandsp_rhykey → pmdneo_rhythm_event_trigger 共通 hook
#PNEFile	"step5.PNE"

; FM voice (= reference template、 step5/step11 fixture と同一)
; nm alg fbl
@001 000 005
; ar  dr  sr  rr  sl  tl  ks  ml  dt ams
 031 000 000 000 000 017 000 001 003 000
 031 000 000 000 000 025 000 002 003 000
 031 000 000 000 000 038 000 001 003 000
 004 018 000 015 002 000 000 001 003 000

A ;silent
B ;silent
C ;silent
D ;silent
E ;silent
F ;silent

G V0
H V0
I V0

J ;empty

K ;empty (= K part は使わない、 R 経路のみ proof)

; L part — Step 12 γ proof 対象、 melody part 内 \b inline (= R command semantics)
; PMDDotNET emit 期待: L part body bytecode = 0xEB 0x01 (+ 0x80 part end)
; driver pmdneo_part_main → commandsp(0xEB) → commandsp_rhykey → pmdneo_rhythm_event_trigger → ADPCM-A L ch BD trigger
; K fixture (= k-br-only.mml) と同 routine addr hit + 同 BD register write の literal differential proof
L	\b

; M-Q (= ADPCM-A ch 1-5 native melody) silent (= 記載なし)
