#Title		PMDNEO MML template (Bscale)
#Composer	M.Koshikawa.
#Memo		PMDDotNET pmdplay 鳴る最小 template、 音色/音量/melody 試行用

; nm alg fbl
@001 000 005
; ar  dr  sr  rr  sl  tl  ks  ml  dt ams	矩形波 25%
 031 000 000 000 000 017 000 001 003 000
 031 000 000 000 000 025 000 002 003 000
 031 000 000 000 000 038 000 001 003 000
 008 018 000 015 002 000 000 001 003 000

; nm alg fbl
@002 005 007
; ar  dr  sr  rr  sl  tl  ks  ml  dt ams	矩形波 50%
 031 000 000 000 000 025 000 002 000 000
 031 018 010 015 002 000 000 001 000 000
 031 018 010 015 002 000 000 001 000 000
 031 018 010 015 002 000 000 001 000 000

; nm alg fbl
@004 002 007
; ar  dr  sr  rr  sl  tl  ks  ml  dt ams	三角波
 031 000 000 000 000 070 000 015 000 000
 000 000 000 015 000 127 000 000 000 000
 031 000 000 000 000 045 000 001 000 000
 031 000 000 015 000 000 000 000 000 000

; nm alg fbl
@005 005 006
; ar  dr  sr  rr  sl  tl  ks  ml  dt ams	のこぎり波
 031 000 000 000 000 018 000 001 000 000
 031 018 006 015 002 000 000 001 000 000
 031 018 006 015 002 000 000 001 000 000
 031 018 006 015 002 000 000 001 000 000

B	t75

;	[Intro]
B	@1v10q6
B	o5l1 c
