#Title		ADR-0025 step 11 alpha L-Q rhythm song step5b (= multi-table id=0x01 proof fixture、 MML body = step5/l-q-rhythm-song.mml 流用)
#Composer	M.Koshikawa.
#Memo		ADR-0025 §決定 3 axis 2 整合、 step5.MN body 同一流用 + #PNEFile のみ差替 (= filename → id 差分が root cause 限定)
#PNEFile	"step5b.PNE"

; FM voice (= reference template、 voice-ar-04.mml と同じ、 step5 fixture と同一内容)
; nm alg fbl
@001 000 005
; ar  dr  sr  rr  sl  tl  ks  ml  dt ams
 031 000 000 000 000 017 000 001 003 000
 031 000 000 000 000 025 000 002 003 000
 031 000 000 000 000 038 000 001 003 000
 004 018 000 015 002 000 000 001 003 000

; ADR-0016 step 5 統合楽曲 (= α/β/γ/δ 全 chain 動作確認、 step5b fixture では filename のみ差替)
; 1 小節 リズムパターン、 各 ch 異なる voice + v cmd で audible
; ADR-0025 step 11: filename = step5b.PNE で resolver entry 1 match → sample_table_id = 0x01
;                    α では selector id=0x00 only-accept のため sentinel silent (= playback 不影響)
;                    β で selector 拡張後、 L ch = table B SD で audible 差分が出る
L	v16 @0 o4 l8 c c c c c c c c
M	v16 @1 o4 l8 r c r c r c r c
N	v12 @2 o4 l16 c c c c c c c c c c c c c c c c
O	v8  @3 o4 l4 c r c r
P	v12 @4 o4 l2 c r
Q	v16 @5 o4 l1 c
