#Title		ADR-0032 step 18 beta K part 0x03 fixture (= K part \b\s multi-bit dispatch BD+SD trigger proof = simultaneous trigger semantics proof minimal)
#Composer	M.Koshikawa.
#Memo		ADR-0032 §決定 1/2/4/6/7 multi-bit bitmap dispatch latent semantics 証明 minimal、 PMDDotNET mc.cs rs00 OR 蓄積 path 経由 0xEB 0x03 emit を狙う (= 連続 \b\s syntax で work.al = 1 → 0xEB 0x01 emit + prsok = 0x80 → 次 \s で work.al = 2 → rs01 OR 蓄積 work.al |= cch = 0x03 → 直前 0xEB arg を 0x03 で上書き = 単一 0xEB 0x03 bytecode に collapse)、 fixture naming = bitmap-centric hex pattern (= k03.mml = K part + bitmap 0x03、 drum-centric semantics naming `k-br-only.mml` / `k-sr-only.mml` Step 12-17 からの転換点 = sprint chain 軸転換 milestone)、 driver Z80 source 完全不変 = latent semantics 証明 paradigm (= 既存 dispatch path 自然 call nz 連鎖が multi-bit 状況下で structurally 動作)
#PNEFile	"step5.PNE"

; FM voice (= reference template、 step5/step11/step12/step13/step14/step15/step16 fixture と同一)
; nm alg fbl
@001 000 005
; ar  dr  sr  rr  sl  tl  ks  ml  dt ams
 031 000 000 000 000 017 000 001 003 000
 031 000 000 000 000 025 000 002 003 000
 031 000 000 000 000 038 000 001 003 000
 004 018 000 015 002 000 000 001 003 000

A ;silent
B ;silent
C ;silent
D ;silent
E ;silent
F ;silent

G V0
H V0
I V0

J ;empty

; K part — Step 18 β proof、 PMDDotNET bdset() + snrset() 連続 → rs00() OR 蓄積 → 単一 0xEB 0x03 bytecode (= bit 0 BD + bit 1 SD multi-bit dispatch、 PMDNEO 側 wording は BD+SD 統一)
; expect: 0xEB 0x03 0x80 (= rhykey BD+SD bitmap + part end、 PMDDotNET rs00 OR 蓄積 path 経由)
; ADR-0032 §決定 1/4/7: multi-bit bitmap dispatch latent semantics 証明 (= 現自然 dispatch (bit 0 → bit 5 順次 call nz 連鎖) が structurally multi-bit 処理可能 + driver Z80 source 完全不変 + 第 2 invariant 「dispatch path は simultaneous trigger でも増やさない」)
; expected register write order (= bitmap ascending、 軸 2): BD reg writes (= reg 0x10/0x18/0x20/0x28 = 0x00/0x00/0x03/0x00 + 0x08 = 0xDF vol|pan + 0x00 = 0x01 keyon mask) → SD reg writes (= 同 reg 0x10/0x18/0x20/0x28 = 0x04/0x00/0x06/0x00 + 0x08 = 0xDF + 0x00 = 0x01 keyon mask) = L ch 1 本順次上書き = last-write-dominant = SD 支配 (= L ch scaffold 自然結果、 bug ではなく expected behavior、 軸 3)
K	\b\s

; L-Q silent (= 記載なし)
